X:516
T:Gangar fra Smalenene
S:https://lesters-tune-a-day.blogspot.com/2019/06/tune-516-gangar-fra-smalenene.html
M:2/4
L:1/16
K:G
|: D2G2 G2AB | c2Bc A2Bc | BABG E3F |[1,3 G2FE E2D2 :|[2,4 G2AG G4 :|
|: D2d2 d2ed | c2Bc A2Bc | BABG E3F |[1,3 G2FE E2D2 :|[2,4 G2AG G4 :|
